logos/cloudinary.svg

<?xml version="1.0" encoding="UTF-8"?>
<svg width="512px" height="100px" viewBox="0 0 512 100" version="1.1" xmlns="http://www.w3.org/2000/svg" preserveAspectRatio="xMidYMid">
    <title>Cloudinary</title>
    <g>
        <path d="M164.38909,31.140356 C169.830745,31.1510319 174.95965,33.6852256 178.274166,38.0009766 C178.391364,38.1569591 178.567845,38.2575364 178.76178,38.2788692 C178.955715,38.300202 179.149839,38.2403914 179.29814,38.1136136 L185.145027,33.4545355 C185.296074,33.3339049 185.392861,33.1580869 185.413997,32.9659406 C185.435133,32.7737943 185.378878,32.5811415 185.257664,32.4305622 C180.213906,25.8851994 172.416822,22.052863 164.153576,22.0577043 C148.886135,22.0577043 136.506299,35.2157694 136.506299,51.3945463 C136.506299,67.5733232 148.927094,80.7316763 164.153576,80.7316763 C172.416916,80.7591044 180.219112,76.9261813 185.247424,70.3687701 C185.373104,70.2191492 185.431209,70.0241605 185.407928,69.8301505 C185.384646,69.6361405 185.282058,69.4604349 185.124547,69.3447969 L179.2879,64.7369174 C179.137321,64.6157035 178.944668,64.5594477 178.752522,64.5805838 C178.560375,64.6017199 178.384557,64.6985074 178.263927,64.8495544 C174.933306,69.1361921 169.817503,71.6544509 164.38909,71.6794558 C153.954802,71.6794558 145.793736,62.7708888 145.793736,51.4150258 C145.793736,40.0591627 153.954802,31.140356 164.38909,31.140356 Z M192.794107,20.3886371 L200.125755,20.3886371 C200.527278,20.3886371 200.852776,20.7141355 200.852776,21.1156581 L200.852776,79.2568577 C200.852776,79.652725 200.531862,79.9736389 200.135995,79.9736389 L192.804346,79.9736389 C192.402824,79.9736389 192.077183,79.6481406 192.077183,79.2466179 L192.077183,21.1156581 C192.074584,20.923788 192.14889,20.7388302 192.283611,20.6021848 C192.391388,20.4928685 192.530629,20.4217878 192.680263,20.3977281 L192.794107,20.3886371 Z M225.837723,40.4994712 C216.120217,40.4994712 206.290074,47.3805713 206.290074,60.5386272 C206.290074,72.0992849 214.696894,80.8235367 225.837723,80.8235367 C236.978551,80.8235367 245.467289,72.0992849 245.467289,60.5386272 C245.467289,48.9779695 237.02975,40.4994712 225.837723,40.4994712 Z M236.620161,60.5386272 C236.620161,67.2149326 231.981562,72.2528808 225.837723,72.2528808 C219.693883,72.2528808 215.147442,67.2149326 215.147442,60.5386272 C215.147442,53.8623218 219.745082,49.0701271 225.837723,49.0701271 C231.930363,49.0701271 236.620161,53.9954383 236.620161,60.5386272 Z M284.982416,41.3389866 L277.650768,41.3389866 C277.458897,41.336388 277.27394,41.4106939 277.137294,41.5454147 C277.000649,41.6801355 276.923727,41.8640208 276.923747,42.0559105 L276.923747,61.5114017 C276.923747,69.1092831 271.681004,71.8023326 267.185761,71.8023326 C263.212745,71.8023326 259.20901,68.8020911 259.20901,62.0950665 L259.20901,42.0559105 C259.209029,41.8640208 259.132108,41.6801355 258.995462,41.5454147 C258.858817,41.4106939 258.673859,41.336388 258.481989,41.3389866 L251.150341,41.3389866 C250.754473,41.3389866 250.433559,41.6600432 250.433559,42.0559105 L250.433559,63.0473616 C250.433559,74.5670603 255.645583,80.9054546 265.117335,80.9054546 C268.557885,80.9054546 274.1283,78.9291863 276.217205,74.5670603 L276.923747,74.7104166 L276.923747,79.2568577 C276.923747,79.6583803 277.249245,79.9838787 277.650768,79.9838787 L284.982416,79.9838787 C285.383938,79.9838787 285.709437,79.6583803 285.709437,79.2568577 L285.709437,42.0559105 C285.709437,41.8640208 285.632535,41.6801355 285.495889,41.5454147 C285.359244,41.4106939 285.174286,41.336388 284.982416,41.3389866 Z M330.006518,20.3886371 L322.66463,20.3886371 C322.472741,20.3886371 322.288855,20.4655394 322.154135,20.6021848 C322.019414,20.7388302 321.945108,20.923788 321.947849,21.1156581 L321.947849,47.1040985 L321.497301,46.3873173 C319.265039,42.7931712 314.462605,40.468752 309.260821,40.468752 C300.290816,40.468752 291.218413,47.3805713 291.218413,60.5898258 C291.218413,72.1095246 299.010849,80.7928175 309.332499,80.7928175 C313.264556,80.7928175 318.804251,79.2158988 321.497301,74.7923344 L321.947849,74.0550737 L321.947849,79.2568577 C321.945108,79.4487278 322.019414,79.6336856 322.154135,79.770331 C322.288855,79.9069764 322.472741,79.9838983 322.66463,79.9838787 L330.006518,79.9838787 C330.198408,79.9838983 330.382293,79.9069764 330.517014,79.770331 C330.651735,79.6336856 330.726041,79.4487278 330.723442,79.2568577 L330.723442,21.1156581 C330.726041,20.923788 330.651735,20.7388302 330.517014,20.6021848 C330.409238,20.4928685 330.269996,20.4217878 330.120362,20.3977281 L330.006518,20.3886371 Z M321.814733,60.5386272 C321.913929,63.5453826 320.806198,66.4668749 318.738421,68.6519868 C316.670643,70.8370987 313.814671,72.1042263 310.807021,72.170963 C304.806537,72.170963 300.1065,67.0510969 300.1065,60.5386272 C300.1065,54.0261575 304.806537,49.0701271 310.807021,49.0701271 C316.995996,49.2266553 321.898555,54.3487322 321.784013,60.5386272 L321.814733,60.5386272 Z M340.993751,41.3391293 L348.325399,41.3391293 C348.721267,41.3391293 349.042181,41.6600432 349.042181,42.0559105 L349.042181,79.2568577 C349.042181,79.652725 348.721267,79.9736389 348.325399,79.9736389 L340.993751,79.9736389 C340.592229,79.9736389 340.26673,79.6481406 340.26673,79.2466179 L340.26673,42.0559105 C340.27233,41.6583925 340.596194,41.3391293 340.993751,41.3391293 Z M344.959214,21.566226 L344.690294,21.5662064 C343.156448,21.5331535 341.673964,22.1194361 340.577619,23.192659 C339.481275,24.265882 338.863531,25.7355343 338.863887,27.2697372 C338.897651,30.4553362 341.504643,33.0119294 344.690294,32.9835078 C346.214326,33.0028067 347.682014,32.4080205 348.762639,31.3331741 C349.843264,30.2583278 350.445911,28.7938506 350.434784,27.2697372 C350.460309,25.7422348 349.861929,24.2703572 348.777813,23.193971 C347.757468,22.1809016 346.38988,21.600599 344.959214,21.566226 L344.959214,21.566226 Z M379.239151,40.4994712 C376.023875,40.4994712 370.310104,42.229986 368.129041,46.8378655 L367.4225,46.6945092 L367.4225,42.0559105 C367.42252,41.8640208 367.345598,41.6801355 367.208952,41.5454147 C367.072307,41.4106939 366.887349,41.336388 366.695479,41.3391293 L359.363831,41.3391293 C358.967963,41.3391293 358.646907,41.6600432 358.646907,42.0559105 L358.646907,79.2568577 C358.644308,79.4487278 358.718614,79.6336856 358.853335,79.770331 C358.988056,79.9069764 359.171941,79.9838787 359.363831,79.9838787 L366.695479,79.9838787 C367.097002,79.9838787 367.4225,79.6583803 367.4225,79.2568577 L367.4225,59.8013665 C367.4225,52.2649235 372.665243,49.5616342 377.160485,49.5616342 C381.133501,49.5616342 385.137237,52.5413963 385.137237,59.1869825 L385.137237,79.2568577 C385.137237,79.6583803 385.462735,79.9838787 385.864258,79.9838787 L393.216385,79.9838787 C393.617908,79.9838787 393.943406,79.6583803 393.943406,79.2568577 L393.943406,58.2756464 C393.922927,46.817386 388.700664,40.4994712 379.239151,40.4994712 Z M437.738741,41.3391293 L430.407093,41.3391293 C430.215223,41.336388 430.030265,41.4106939 429.89362,41.5454147 C429.756974,41.6801355 429.680052,41.8640208 429.680072,42.0559105 L429.680072,47.1757766 L429.239763,46.4589954 C426.997262,42.8648494 422.194828,40.5404302 416.952085,40.5404302 C407.992319,40.5404302 398.909677,47.4522494 398.909677,60.661504 C398.909677,72.1812027 406.702113,80.8644956 417.034003,80.8644956 C420.95582,80.8644956 426.495515,79.2875769 429.198804,74.8640126 L429.639113,74.1267518 L429.639113,79.2568577 C429.639113,79.6583803 429.964611,79.9838787 430.366134,79.9838787 L437.697782,79.9838787 C437.889672,79.9838983 438.073557,79.9069764 438.208278,79.770331 C438.342999,79.6336856 438.417305,79.4487278 438.414706,79.2568577 L438.414706,42.0559105 C438.415185,41.6755022 438.118528,41.3608664 437.738741,41.3391293 Z M429.546955,60.5386272 C429.646153,63.5505977 428.534246,66.4767098 426.459842,68.6627234 C424.385438,70.848737 421.521557,72.112324 418.508524,72.170963 C412.508041,72.170963 407.818244,67.0510969 407.818244,60.5386272 C407.818244,54.0261575 412.508041,49.0701271 418.508524,49.0701271 C424.713626,49.2044903 429.640777,54.3331237 429.526476,60.5386272 L429.546955,60.5386272 Z M471.191946,41.4722423 C469.519988,40.7947048 467.732749,40.4469929 465.928724,40.4482655 C461.054611,40.4482655 457.511664,43.3665962 455.688992,48.8960516 L455.033649,48.8038941 L455.033649,42.0559105 C455.033668,41.8640208 454.956747,41.6801355 454.820101,41.5454147 C454.683456,41.4106939 454.498498,41.336388 454.306628,41.3391293 L446.97498,41.3391293 C446.783109,41.336388 446.598152,41.4106939 446.461506,41.5454147 C446.324861,41.6801355 446.247959,41.8640208 446.247959,42.0559105 L446.247959,79.2568577 C446.247959,79.6583803 446.573457,79.9838787 446.97498,79.9838787 L454.388546,79.9838787 C454.580435,79.9838787 454.764321,79.9069764 454.899042,79.770331 C455.033762,79.6336856 455.108068,79.4487278 455.105327,79.2568577 L455.105327,66.5595862 C455.105327,65.9410229 455.115409,65.3439541 455.134996,64.7676557 L455.171432,63.9186952 C455.185905,63.6408406 455.202683,63.3680881 455.221692,63.1003471 L455.285344,62.3120683 C455.378948,61.2808347 455.507108,60.3283375 455.665205,59.4487837 L455.789319,58.8027047 C456.264457,56.4832332 456.957268,54.7044429 457.771717,53.3458551 L457.996784,52.9856589 C458.37668,52.4023938 458.779903,51.9036845 459.197436,51.4782162 L459.449601,51.2316336 C459.661048,51.0333214 459.875622,50.8527537 460.092195,50.6885162 L460.35297,50.4991791 C460.483764,50.4083393 460.615117,50.3231747 460.746782,50.2433798 L461.01046,50.090859 L461.01046,50.090859 L461.274542,49.9521144 L461.274542,49.9521144 L461.538594,49.8266028 L461.538594,49.8266028 L461.802184,49.7137811 C461.846053,49.6960048 461.889885,49.6787346 461.933671,49.6619592 L462.195756,49.567154 L462.195756,49.567154 L462.456296,49.4836809 L462.456296,49.4836809 L462.71486,49.4109968 L462.71486,49.4109968 L462.971013,49.3485587 L462.971013,49.3485587 L463.224322,49.2958234 L463.224322,49.2958234 L463.474356,49.2522477 L463.474356,49.2522477 L463.720681,49.2172887 L463.720681,49.2172887 L463.962863,49.1904032 L463.962863,49.1904032 L464.200471,49.171048 L464.200471,49.171048 L464.547358,49.1549467 L464.547358,49.1549467 L464.771634,49.1520414 L464.771634,49.1520414 C466.158074,49.1555528 467.530739,49.4149857 468.820925,49.9160627 L469.205438,50.0736209 C469.40336,50.1661774 469.63214,50.1661774 469.830062,50.0736209 C470.020485,49.9734212 470.155819,49.7929753 470.198692,49.5821137 L471.652734,42.3016641 C471.718294,41.9844942 471.566146,41.6671087 471.288876,41.5161641 L471.191946,41.4722423 Z M511.874402,41.656561 C511.740863,41.4540584 511.512778,41.3342172 511.270258,41.3388468 L503.375425,41.3388468 C503.077789,41.3422189 502.811206,41.5239798 502.699602,41.7999172 L493.145932,66.5595897 L483.500104,41.7999172 C483.388501,41.5239798 483.121918,41.3422189 482.824282,41.3388468 L474.775853,41.3388468 C474.536949,41.3377242 474.313516,41.457145 474.181948,41.656561 C474.04599,41.855471 474.01906,42.1093797 474.11027,42.3323833 L488.445895,77.5365827 L480.530582,98.1082047 C480.428996,98.3351289 480.450415,98.5982294 480.587368,98.8057341 C480.724321,99.0132389 480.957815,99.1363699 481.206404,99.1323803 L488.886204,99.1323803 C489.182787,99.1335025 489.448629,98.9494585 489.551786,98.67139 L511.935841,42.3528628 C512.024821,42.1585627 512.020378,41.9363944 511.927933,41.7477848 L511.874402,41.656561 Z" fill="#3448C5"></path>
        <path d="M36.2439606,36.3131396 C36.3344139,36.3131396 36.4210911,36.3494044 36.4845943,36.4138181 L47.8609368,47.8004003 C47.9547689,47.8968891 47.9823938,48.0398615 47.9312604,48.1643601 C47.880127,48.2888588 47.7599865,48.3711419 47.625423,48.3738253 L44.7173391,48.3738253 C44.5289895,48.3737438 44.3747278,48.5234684 44.3691882,48.7117365 L44.3691882,74.311067 C44.3733168,75.9314002 45.0173746,77.4844996 46.1611413,78.632234 L47.8609368,80.3320296 C47.9547689,80.4285183 47.9823938,80.5714907 47.9312604,80.6959894 C47.880127,80.8204881 47.7599865,80.9027712 47.625423,80.9054546 L34.2113738,80.9054546 C30.818225,80.9054546 28.0675345,78.154764 28.0675345,74.7616152 L28.0675345,48.7117365 C28.0675345,48.5251133 27.9162465,48.3738253 27.7296233,48.3738253 L24.8624983,48.3738253 C24.7260753,48.37522 24.6021969,48.2944406 24.5484545,48.1690415 C24.494712,48.0436425 24.5216499,47.8982275 24.6167447,47.8004003 L36.0033269,36.4138181 C36.0668302,36.3494044 36.1535074,36.3131396 36.2439606,36.3131396 Z M61.4029827,42.9075272 C61.493436,42.9075272 61.5801131,42.9437919 61.6436164,43.0082056 L73.0301986,54.3538289 C73.1252934,54.4516561 73.1522313,54.5970711 73.0984889,54.7224701 C73.0447464,54.8478692 72.920868,54.9286486 72.7844451,54.9272539 L69.8763611,54.9272539 C69.6880931,54.9327936 69.5383685,55.0870553 69.53845,55.2754048 L69.53845,74.311067 C69.5398563,75.9299393 70.1801498,77.4828349 71.3201634,78.632234 L73.0301986,80.3320296 C73.1252934,80.4298567 73.1522313,80.5752718 73.0984889,80.7006708 C73.0447464,80.8260698 72.920868,80.9068493 72.7844451,80.9054897 L59.4011151,80.9054897 C56.0079663,80.9054897 53.2572757,78.154764 53.2572757,74.7616152 L53.2572757,55.2958843 C53.2573572,55.1075348 53.1076326,54.9532731 52.9193646,54.9477334 L50.0215203,54.9477334 C49.8869568,54.94505 49.7668164,54.8627669 49.715683,54.7382682 C49.6645496,54.6137695 49.6921744,54.4707971 49.7860065,54.3743084 L61.162349,43.0082056 C61.2258523,42.9437919 61.3125295,42.9075272 61.4029827,42.9075272 Z M86.5671246,49.4310633 C86.6559154,49.4310633 86.740905,49.4670966 86.8026385,49.530915 L98.1892207,60.9072575 C98.2904054,61.0027326 98.3227355,61.1504636 98.2706783,61.2794747 C98.2186212,61.4084859 98.0928169,61.4924083 97.9537069,61.4909223 L95.0353832,61.4909223 C94.84876,61.4909223 94.697472,61.6422103 94.697472,61.8288334 L94.697472,74.311067 C94.7016007,75.9314002 95.3456585,77.4844996 96.4894252,78.632234 L98.1892207,80.3320296 C98.2830528,80.4285183 98.3106776,80.5714907 98.2595442,80.6959894 C98.2084109,80.8204881 98.0882704,80.9027712 97.9537069,80.9054546 L84.5294179,80.9054546 C81.1362692,80.9054546 78.3855786,78.154764 78.3855786,74.7616152 L78.3855786,61.8288334 C78.3855786,61.6422103 78.2342906,61.4909223 78.0476674,61.4909223 L75.1805424,61.4909223 C75.0414323,61.4924083 74.9156281,61.4084859 74.8635709,61.2794747 C74.8115138,61.1504636 74.8438439,61.0027326 74.9450286,60.9072575 L86.3316108,49.530915 C86.3933443,49.4670966 86.4783338,49.4310633 86.5671246,49.4310633 Z M61.1725887,0 C79.0582902,0.130224108 94.8334014,11.7446394 100.267886,28.7852176 C113.550829,30.5187737 123.517416,41.7880102 123.614476,55.1832472 C123.614476,66.2387864 116.700354,75.4259141 105.536918,79.2507713 L105.121519,79.3899742 L104.609533,79.5538099 L104.609533,71.3005857 C111.705667,68.3105839 115.873238,62.4022584 115.873238,55.1832472 C115.836897,44.9965099 107.769523,36.6785709 97.6306598,36.2907617 L97.2881243,36.2807016 L94.2162046,36.2807016 L93.4789439,33.3521381 C89.8606268,18.416452 76.5399302,7.86122491 61.1725887,7.75280759 C48.5280768,7.69210713 36.9809058,14.8771558 31.4395186,26.213099 L30.2997961,28.5599435 L28.1494523,28.7852176 C18.4377111,29.8241496 10.463371,36.9274426 8.31297273,46.4549336 C6.19329447,55.8463176 10.1954775,65.5412054 18.282561,70.710088 L18.6367411,70.9319554 L18.6367411,79.6357278 L18.5855424,79.6357278 L17.8175625,79.2875769 C5.67118254,73.7036139 -1.44361408,60.8803463 0.246851488,47.6192183 C1.93731706,34.3580903 12.0416031,23.7298295 25.2004094,21.3716514 C32.3096405,8.13747651 46.1500346,-0.0848128488 61.1725887,0 Z" fill="#3448C5"></path>
    </g>
</svg>

<svg preserveAspectRatio="xMidYMid" viewBox="0 0 512 100" xmlns="http://www.w3.org/2000/svg">
  <g fill="#3448C5">
    <path d="M164.39 31.14a17.55 17.55 0 0 1 13.884 6.861.707.707 0 0 0 1.024.113l5.847-4.66a.727.727 0 0 0 .113-1.023 26.623 26.623 0 0 0-21.104-10.373c-15.268 0-27.648 13.158-27.648 29.337 0 16.178 12.421 29.337 27.648 29.337a26.47 26.47 0 0 0 21.093-10.363.707.707 0 0 0-.122-1.024l-5.837-4.608a.727.727 0 0 0-1.024.113 17.674 17.674 0 0 1-13.875 6.83c-10.434 0-18.595-8.91-18.595-20.265 0-11.356 8.16-20.275 18.595-20.275Zm28.404-10.751h7.332c.401 0 .727.325.727.727v58.14a.717.717 0 0 1-.717.718h-7.332a.727.727 0 0 1-.727-.727V21.116a.718.718 0 0 1 .603-.718l.114-.01Zm33.044 20.11c-9.718 0-19.548 6.882-19.548 20.04 0 11.56 8.407 20.285 19.548 20.285 11.14 0 19.63-8.725 19.63-20.285 0-11.561-8.438-20.04-19.63-20.04Zm10.782 20.04c0 6.676-4.638 11.714-10.782 11.714s-10.69-5.038-10.69-11.714c0-6.677 4.597-11.469 10.69-11.469 6.092 0 10.782 4.925 10.782 11.469Zm48.362-19.2h-7.331a.718.718 0 0 0-.727.717V61.51c0 7.598-5.243 10.291-9.738 10.291-3.973 0-7.977-3-7.977-9.707v-20.04a.717.717 0 0 0-.727-.716h-7.332a.717.717 0 0 0-.716.717v20.991c0 11.52 5.212 17.858 14.683 17.858 3.44 0 9.011-1.976 11.1-6.338l.707.143v4.547c0 .401.325.727.727.727h7.331a.727.727 0 0 0 .727-.727v-37.2a.717.717 0 0 0-.727-.717Zm45.025-20.95h-7.342a.717.717 0 0 0-.717.727v25.988l-.45-.717c-2.233-3.594-7.035-5.918-12.237-5.918-8.97 0-18.043 6.912-18.043 20.12 0 11.52 7.793 20.204 18.114 20.204 3.933 0 9.472-1.577 12.165-6l.45-.738v5.202a.717.717 0 0 0 .718.727h7.342a.717.717 0 0 0 .716-.727V21.116a.718.718 0 0 0-.603-.718l-.113-.01Zm-8.192 40.15a11.264 11.264 0 0 1-11.008 11.632c-6 0-10.7-5.12-10.7-11.632 0-6.513 4.7-11.469 10.7-11.469 6.189.157 11.092 5.279 10.977 11.469h.03Zm19.179-19.2h7.331c.396 0 .717.321.717.717v37.2c0 .397-.32.718-.717.718h-7.331a.727.727 0 0 1-.727-.727V42.056a.727.727 0 0 1 .727-.717Zm3.965-19.773h-.269a5.704 5.704 0 0 0-5.826 5.704 5.775 5.775 0 0 0 5.826 5.714 5.673 5.673 0 0 0 5.745-5.714 5.611 5.611 0 0 0-5.476-5.704ZM379.24 40.5c-3.215 0-8.929 1.731-11.11 6.339l-.707-.143v-4.64a.717.717 0 0 0-.727-.716h-7.331a.717.717 0 0 0-.717.717v37.2a.718.718 0 0 0 .717.728h7.331a.727.727 0 0 0 .728-.727V59.8c0-7.536 5.242-10.24 9.737-10.24 3.974 0 7.977 2.98 7.977 9.626v20.07c0 .401.326.727.727.727h7.352a.727.727 0 0 0 .727-.727v-20.98c-.02-11.459-5.242-17.777-14.704-17.777Zm58.5.84h-7.332a.717.717 0 0 0-.727.717v5.12l-.44-.717c-2.243-3.594-7.045-5.919-12.288-5.919-8.96 0-18.042 6.912-18.042 20.122 0 11.52 7.792 20.202 18.124 20.202 3.922 0 9.462-1.576 12.165-6l.44-.737v5.13c0 .401.326.727.727.727h7.332a.717.717 0 0 0 .717-.727V42.056a.717.717 0 0 0-.676-.717Zm-8.192 19.2a11.264 11.264 0 0 1-11.038 11.632c-6.001 0-10.69-5.12-10.69-11.632 0-6.513 4.689-11.469 10.69-11.469 6.205.134 11.132 5.263 11.017 11.469h.021Zm41.645-19.067a13.988 13.988 0 0 0-5.263-1.024c-4.874 0-8.417 2.919-10.24 8.448l-.655-.092v-6.748a.717.717 0 0 0-.727-.717h-7.332a.717.717 0 0 0-.727.717v37.2c0 .402.325.728.727.728h7.414a.717.717 0 0 0 .716-.727V66.56c0-.619.01-1.216.03-1.792l.036-.85c.015-.277.032-.55.05-.818l.064-.788c.094-1.031.222-1.984.38-2.863l.124-.646c.475-2.32 1.168-4.099 1.983-5.457l.225-.36a9.7 9.7 0 0 1 1.2-1.508l.253-.246c.211-.199.426-.38.642-.543l.261-.19c.13-.09.262-.176.394-.256l.263-.152.265-.139.264-.125.263-.113.132-.052.262-.095.26-.083.259-.073.256-.062.253-.053.25-.044.247-.035.242-.027.237-.019.347-.016.225-.003c1.386.004 2.759.263 4.049.764l.384.158a.737.737 0 0 0 .625 0c.19-.1.326-.281.369-.492l1.454-7.28a.727.727 0 0 0-.364-.786l-.097-.044Zm40.682.185a.707.707 0 0 0-.604-.318h-7.895a.738.738 0 0 0-.675.46l-9.554 24.76L483.5 41.8a.738.738 0 0 0-.676-.46h-8.048a.707.707 0 0 0-.594.318.717.717 0 0 0-.072.675l14.336 35.205-7.915 20.571a.727.727 0 0 0 .675 1.024h7.68a.707.707 0 0 0 .666-.46l22.384-56.32a.707.707 0 0 0-.008-.604l-.054-.091Z"/>
    <path d="M36.244 36.313c.09 0 .177.036.24.1L47.862 47.8a.338.338 0 0 1-.236.574h-2.908a.348.348 0 0 0-.348.338v25.6a6.144 6.144 0 0 0 1.792 4.32l1.7 1.7a.338.338 0 0 1-.236.573H34.211a6.144 6.144 0 0 1-6.143-6.143v-26.05a.338.338 0 0 0-.338-.338h-2.868a.338.338 0 0 1-.245-.574l11.386-11.386c.064-.065.15-.1.241-.1Zm25.159 6.595c.09 0 .177.036.24.1L73.03 54.354a.338.338 0 0 1-.246.573h-2.908a.348.348 0 0 0-.338.348v19.036a6.144 6.144 0 0 0 1.782 4.321l1.71 1.7a.338.338 0 0 1-.246.573H59.401a6.144 6.144 0 0 1-6.144-6.143V55.296a.348.348 0 0 0-.338-.348h-2.897a.338.338 0 0 1-.236-.574l11.376-11.366a.34.34 0 0 1 .241-.1Zm25.164 6.523c.089 0 .174.036.236.1l11.386 11.376a.338.338 0 0 1-.235.584h-2.919a.338.338 0 0 0-.338.338V74.31a6.144 6.144 0 0 0 1.792 4.321l1.7 1.7a.338.338 0 0 1-.235.573H84.529a6.144 6.144 0 0 1-6.143-6.143V61.829a.338.338 0 0 0-.338-.338H75.18a.338.338 0 0 1-.236-.584l11.387-11.376a.328.328 0 0 1 .235-.1ZM61.173 0c17.885.13 33.66 11.745 39.095 28.785 13.283 1.734 23.25 13.003 23.346 26.398 0 11.056-6.914 20.243-18.077 24.068l-.415.139-.512.164V71.3c7.096-2.99 11.263-8.899 11.263-16.118-.036-10.186-8.103-18.504-18.242-18.892l-.343-.01h-3.072l-.737-2.929c-3.618-14.936-16.94-25.49-32.306-25.6A32.92 32.92 0 0 0 31.44 26.214L30.3 28.56l-2.15.225a22.824 22.824 0 0 0-9.867 41.925l.354.222v8.704h-.051l-.768-.348A30.596 30.596 0 0 1 25.2 21.372 40.574 40.574 0 0 1 61.173 0Z"/>
  </g>
</svg>
